X: 1078
T: The Glens of Mayo
R:double jig
N:"collected by F.O'Neill"
B:O'Neill's 1078
Z:Transcribed by henrik.norbeck@mailbox.swipnet.se
M:6/8
L:1/8
K:G
e|dBG AGE|GAB c2e|dBG BAG|AB^d e2g|
dBG AGE|GBd gfe|dBG AGE|GAG G2:|
B|BcB Beg|fe^d e2g|fed dBA|Bd^c d2B|
BcB Bef|gab a2(b/a/)|gfe dBA|GEE E2:|


